message-question-outline.svg

<svg fill="currentColor" viewBox="0 0 24 24"><path d="M20 2H4c-1.1 0-2 .9-2 2v18l4-4h14c1.1 0 2-.9 2-2V4c0-1.1-.9-2-2-2m0 14H5.2L4 17.2V4h16zM12.2 5.5c-.9 0-1.6.2-2.1.5-.6.4-.9 1-.8 1.7h2q0-.45.3-.6c.2-.1.4-.2.7-.2s.6.1.8.3.3.4.3.7-.1.5-.2.7c-.2.2-.4.4-.6.5-.5.3-.9.6-1.1.8-.4.3-.5.6-.5 1.1h2c0-.3.1-.5.1-.7.1-.2.3-.3.5-.5.5-.2.8-.5 1.1-.9s.4-.8.4-1.2c0-.7-.3-1.3-.8-1.7-.4-.3-1.2-.5-2.1-.5M11 12v2h2v-2z"/></svg>

<svg  viewBox="0 0 24 24" fill="currentColor"><path  d="M20 2H4C2.9 2 2 2.9 2 4V22L6 18H20C21.1 18 22 17.1 22 16V4C22 2.9 21.1 2 20 2M20 16H5.2L4 17.2V4H20V16M12.2 5.5C11.3 5.5 10.6 5.7 10.1 6C9.5 6.4 9.2 7 9.3 7.7H11.3C11.3 7.4 11.4 7.2 11.6 7.1C11.8 7 12 6.9 12.3 6.9C12.6 6.9 12.9 7 13.1 7.2C13.3 7.4 13.4 7.6 13.4 7.9C13.4 8.2 13.3 8.4 13.2 8.6C13 8.8 12.8 9 12.6 9.1C12.1 9.4 11.7 9.7 11.5 9.9C11.1 10.2 11 10.5 11 11H13C13 10.7 13.1 10.5 13.1 10.3C13.2 10.1 13.4 10 13.6 9.8C14.1 9.6 14.4 9.3 14.7 8.9C15 8.5 15.1 8.1 15.1 7.7C15.1 7 14.8 6.4 14.3 6C13.9 5.7 13.1 5.5 12.2 5.5M11 12V14H13V12H11Z"/></svg>
